X: 24520
T: Lucy Farr's
R: barndance
M: 4/4
K: Gmajor
G2 G2 G2 G2|G>AB>G E2 D2|B2 B2 B2 B2|B>cd>B A2 G2||
B>cd>B A2 G2|G>AB>G E2 ^D2|D>EG>A B>dd>B|A2 G2 G4|
B2 d>B A2 G2|G2 BG E2 ^D2|D2 E>G B2 d>B|A2 G2 G4||

